X: 39683
T: Tenpenny Bit, The
R: jig
M: 6/8
K: Gmajor
|:edB G2A|Bed Bcd|edB G2A|BAF GFE|
DB,D G2A|Bed Bcd|edB gdB|BAG ABd:|
|:e2f gfg|eag fed|e2f gfg|efg a2a|
bag agf|gfe def|gfe dBG|ABA ABd:|

